X:1
T:Where were you all day?
M:3/4
L:1/4
K:G
 B| B B c| d2 B| A G G| G2 e| e de/2-f/2| g2 f| e de/4-f/4-e/4-d/4|\
 d2 f/2f/2| g g a| g B B/2B/2| c3/4- e/4 d c| B- A B3/4 c/4| d d e|\
 d2 c/2B/2|A/2-B/2c/2-A/2 G| G2||
